src/static/icons/live.svg

<?xml version="1.0" encoding="UTF-8" standalone="no"?>
<!-- Created with Inkscape (http://www.inkscape.org/) -->
<svg
   xmlns:dc="http://purl.org/dc/elements/1.1/"
   xmlns:cc="http://web.resource.org/cc/"
   xmlns:rdf="http://www.w3.org/1999/02/22-rdf-syntax-ns#"
   xmlns:svg="http://www.w3.org/2000/svg"
   xmlns="http://www.w3.org/2000/svg"
   xmlns:sodipodi="http://inkscape.sourceforge.net/DTD/sodipodi-0.dtd"
   xmlns:inkscape="http://www.inkscape.org/namespaces/inkscape"
   width="48px"
   height="48px"
   id="svg3304"
   sodipodi:version="0.32"
   inkscape:version="0.42"
   sodipodi:docbase="/home/luca/Desktop"
   sodipodi:docname="applications-internet.svg">
  <defs
     id="defs3306" />
  <sodipodi:namedview
     id="base"
     pagecolor="#ffffff"
     bordercolor="#666666"
     borderopacity="1.0"
     inkscape:pageopacity="0.0"
     inkscape:pageshadow="2"
     inkscape:zoom="15.875000"
     inkscape:cx="24.000000"
     inkscape:cy="24.000000"
     inkscape:current-layer="layer1"
     showgrid="true"
     inkscape:grid-bbox="true"
     inkscape:document-units="px"
     inkscape:grid-points="true"
     showguides="true"
     inkscape:guide-bbox="true"
     inkscape:window-width="1280"
     inkscape:window-height="948"
     inkscape:window-x="0"
     inkscape:window-y="27">
    <sodipodi:guide
       orientation="horizontal"
       position="43.968504"
       id="guide4040" />
    <sodipodi:guide
       orientation="vertical"
       position="4.0314961"
       id="guide4042" />
    <sodipodi:guide
       orientation="horizontal"
       position="4.0314961"
       id="guide4044" />
    <sodipodi:guide
       orientation="vertical"
       position="44.094488"
       id="guide4046" />
    <sodipodi:guide
       orientation="horizontal"
       position="40.000000"
       id="guide4776" />
    <sodipodi:guide
       orientation="vertical"
       position="8.0000000"
       id="guide4778" />
    <sodipodi:guide
       orientation="horizontal"
       position="7.9370079"
       id="guide4780" />
    <sodipodi:guide
       orientation="vertical"
       position="40.062992"
       id="guide4782" />
  </sodipodi:namedview>
  <metadata
     id="metadata3309">
    <rdf:RDF>
      <cc:Work
         rdf:about="">
        <dc:format>image/svg+xml</dc:format>
        <dc:type
           rdf:resource="http://purl.org/dc/dcmitype/StillImage" />
      </cc:Work>
    </rdf:RDF>
  </metadata>
  <g
     id="layer1"
     inkscape:label="Layer 1"
     inkscape:groupmode="layer">
    <path
       sodipodi:type="arc"
       style="fill:#ffffff;fill-opacity:1.0000000;fill-rule:evenodd;stroke:none;stroke-width:1.0000000px;stroke-linecap:butt;stroke-linejoin:miter;stroke-opacity:1.0000000"
       id="path3312"
       sodipodi:cx="24.000000"
       sodipodi:cy="24.000000"
       sodipodi:rx="24.000000"
       sodipodi:ry="24.000000"
       d="M 48.000000 24.000000 A 24.000000 24.000000 0 1 1  0.0000000,24.000000 A 24.000000 24.000000 0 1 1  48.000000 24.000000 z" />
    <path
       sodipodi:type="arc"
       style="fill:#000000;fill-opacity:1.0000000;fill-rule:evenodd;stroke:none;stroke-width:1.0000000px;stroke-linecap:butt;stroke-linejoin:miter;stroke-opacity:1.0000000"
       id="path4048"
       sodipodi:cx="24.000000"
       sodipodi:cy="24.000000"
       sodipodi:rx="20.000000"
       sodipodi:ry="20.000000"
       d="M 44.000000 24.000000 A 20.000000 20.000000 0 1 1  4.0000000,24.000000 A 20.000000 20.000000 0 1 1  44.000000 24.000000 z" />
    <path
       sodipodi:type="arc"
       style="fill:#ffffff;fill-opacity:1.0000000;fill-rule:evenodd;stroke:none;stroke-width:1.0000000px;stroke-linecap:butt;stroke-linejoin:miter;stroke-opacity:1.0000000"
       id="path4784"
       sodipodi:cx="24.000000"
       sodipodi:cy="24.000000"
       sodipodi:rx="16.000000"
       sodipodi:ry="16.000000"
       d="M 40.000000 24.000000 A 16.000000 16.000000 0 1 1  8.0000000,24.000000 A 16.000000 16.000000 0 1 1  40.000000 24.000000 z" />
    <path
       style="fill:none;fill-opacity:0.75000000;fill-rule:evenodd;stroke:#000000;stroke-width:4.0000000;stroke-linecap:round;stroke-linejoin:miter;stroke-miterlimit:4.0000000;stroke-dasharray:none;stroke-opacity:1.0000000"
       d="M 10.000000,34.250000 C 18.000000,31.250000 30.000000,31.250000 38.000000,34.250000"
       id="path5512"
       sodipodi:nodetypes="cc" />
    <path
       style="fill:none;fill-opacity:0.75000000;fill-rule:evenodd;stroke:#000000;stroke-width:4.0000000;stroke-linecap:butt;stroke-linejoin:miter;stroke-miterlimit:4.0000000;stroke-dasharray:none;stroke-opacity:1.0000000"
       d="M 7.9685040,24.000000 L 40.031496,24.000000"
       id="path5516" />
    <path
       style="fill:none;fill-opacity:0.75000000;fill-rule:evenodd;stroke:#000000;stroke-width:4.0000000;stroke-linecap:round;stroke-linejoin:miter;stroke-miterlimit:4.0000000;stroke-dasharray:none;stroke-opacity:1.0000000"
       d="M 20.000000,7.5511811 C 15.000000,18.000000 15.000000,31.000000 20.000000,41.000000"
       id="path5520"
       sodipodi:nodetypes="cc" />
    <path
       sodipodi:nodetypes="cc"
       id="path6250"
       d="M 10.000000,13.750000 C 18.000000,16.750000 30.000000,16.750000 38.000000,13.750000"
       style="fill:none;fill-opacity:0.75000000;fill-rule:evenodd;stroke:#000000;stroke-width:4.0000000;stroke-linecap:round;stroke-linejoin:miter;stroke-miterlimit:4.0000000;stroke-dasharray:none;stroke-opacity:1.0000000" />
    <path
       sodipodi:nodetypes="cc"
       id="path9156"
       d="M 28.000000,7.5511811 C 33.000000,18.000000 33.000000,31.000000 28.000000,41.000000"
       style="fill:none;fill-opacity:0.75000000;fill-rule:evenodd;stroke:#000000;stroke-width:4.0000000;stroke-linecap:round;stroke-linejoin:miter;stroke-miterlimit:4.0000000;stroke-dasharray:none;stroke-opacity:1.0000000" />
  </g>
</svg>

<svg xmlns="http://www.w3.org/2000/svg" xmlns:sodipodi="http://inkscape.sourceforge.net/DTD/sodipodi-0.dtd" width="48" height="48" sodipodi:version=".32" sodipodi:docbase="/home/luca/Desktop" sodipodi:docname="applications-internet.svg">
  <sodipodi:namedview pagecolor="#ffffff" bordercolor="#666666" borderopacity="1" showgrid="true" showguides="true">
    <sodipodi:guide orientation="horizontal" position="43.969"/>
    <sodipodi:guide orientation="vertical" position="4.031"/>
    <sodipodi:guide orientation="horizontal" position="4.031"/>
    <sodipodi:guide orientation="vertical" position="44.094"/>
    <sodipodi:guide orientation="horizontal" position="40"/>
    <sodipodi:guide orientation="vertical" position="8"/>
    <sodipodi:guide orientation="horizontal" position="7.937"/>
    <sodipodi:guide orientation="vertical" position="40.063"/>
  </sodipodi:namedview>
  <path sodipodi:type="arc" sodipodi:cx="24" sodipodi:cy="24" sodipodi:rx="24" sodipodi:ry="24" d="M48 24a24 24 0 1 1-48 0 24 24 0 1 1 48 0z" fill="#fff" fill-rule="evenodd"/>
  <path sodipodi:type="arc" sodipodi:cx="24" sodipodi:cy="24" sodipodi:rx="20" sodipodi:ry="20" d="M44 24a20 20 0 1 1-40 0 20 20 0 1 1 40 0z" fill-rule="evenodd"/>
  <path sodipodi:type="arc" sodipodi:cx="24" sodipodi:cy="24" sodipodi:rx="16" sodipodi:ry="16" d="M40 24a16 16 0 1 1-32 0 16 16 0 1 1 32 0z" fill="#fff" fill-rule="evenodd"/>
  <path d="M10 34.25c8-3 20-3 28 0" sodipodi:nodetypes="cc" fill="none" stroke="#000" stroke-width="4" stroke-linecap="round"/>
  <path d="M7.97 24h32.06" fill="none" stroke="#000" stroke-width="4"/>
  <path d="M20 7.55C15 18 15 31 20 41M10 13.75c8 3 20 3 28 0M28 7.55C33 18 33 31 28 41" sodipodi:nodetypes="cc" fill="none" stroke="#000" stroke-width="4" stroke-linecap="round"/>
</svg>
